X: 6
T:Blekinge Engelska I
M:2/4
L:1/16
C:Trad. Swedish
R:Engelska
K:G
DGBd gdBG|cBcA BdBG|DGBd gdBG|cBcA G4:|:d2d2B4|cBcA BdBG|d2d2B4|cBcA G4:
|
